X:65
T:Humours of Ballyloughlin, The
T:Hurler's March, The
R:jig
D:Matt Molloy.
Z:id:hn-jig-65
M:6/8
K:Dmix
~A3 AGE|GED DED|cAA ded|cAG FED|~A3 AGE|~G3 cGE|~D3 DFA|1 ~D3 D3:|2 ~D3 D2B||
|:cBc cBc|cAG AB^c|~d3 dfe|dAF DFA|c2A dcB|cAG FGE|~D3 DFA|1 ~D3 D2B:|2 ~D3 D2e||
|:fdd gdd|fdd ged|cde ged|cde ged|fdd gdd|fdd ged|cde gag|1 ed^c d2e:|2 ed^c d2B||
|:~A3 A2G|FGF FED|~E3 EFD|~E3 EFG|AFA dAG|~F3 GEA|~D3 DFA|~D3 D3:|

